X:1
T:The Manger-Babe
T:The Manger-Babe
T:Grant Colfax Tullar
T:Salathial Cleaver Kirk, 1904
T:Public Domain Courtesy of the Cyber Hymnal™
T:Public Domain Courtesy of the Cyber Hymnal™
C:Grant Colfax Tullar
Z:Public Domain
Z:Courtesy of the Cyber Hymnal™
%%score ( 1 2 ) ( 3 4 )
L:1/8
Q:1/4=112
M:6/8
K:Bb
V:1 treble 
V:2 treble 
V:3 bass 
V:4 bass 
V:1
 [Dd]2 [DA] [Dc]2 [DB] | [DF]3 [DG]2 [DB] | [EA]3 [A,E]3 | [A,E]3- [A,E]2 z | %4
w: 1.~There’s a man- ger-|Babe in a|far off|land, *|
w: 2.~Just a man- ger-|Babe, but it|is the|worth *|
w: 3.~’Tis the man- ger-|Babe, ’tis the|man- ger-|King, *|
 [Ec]2 [E=B] [Ed]2 [Ec] | [EA]3 [CE]2 [EA] | [EG]3 [^C=E]3 | [DF]3- [DF]2 z | %8
w: But it holds the|world in its|in- fant|hand; *|
w: Of the Fa- ther’s|love to the|sons of|earth; *|
w: Un- to Him all|hail! un- to|Him we|sing; *|
 [Dd]2 [DA] [Dc]2 [DB] | [DF]3 [DB]2 [Fd] | [Gc]3 [Gd]3 | [Ge]3- [Ge]2 z | [GB]2 [^FA] [GB]2 [EG] | %13
w: Just a man- ger-|Babe in its|hum- ble|bed, *|But a match- less|
w: ’Tis a King that|sleeps in the|low- ly|stall, *|’Tis the King of|
w: O the glad and|joy- ful ho-|san- nas|swell, *|For the man- ger-|
 [DF]3 (cd)[Fe] | [Fd]3 [Ec]3 | [DB]3- [DB]2 z ||"^Refrain" [Fd]3 [=E^c]2 [Fd] | [Ge]3 [Fd]3 | %18
w: crown is * up-|on its|head. *|||
w: kings! ’tis * the|Lord of|all. *|O man- ger-|Babe, Thy|
w: King is * Im-|man- u-|el! *|||
 [Fd]3 [Ec]3 | [DB]3- [DB]2 z | [GB]3 [FA]2 [EG] | [DF]3 [Fd]3 | [=Ec]3 [EG]3 | [Ec]3- [Ec]2 z | %24
w: ||||||
w: low- ly|rest *|More roy- al|is than|prince- ly|bed; *|
w: ||||||
 [Fd]3 [=E^c]2 [Fd] | [Ge]3 [Fd]3 | [^Fd]3 d3 | [GB]3- [GB]2 z | [GB]3 [FA]2 [EG] | %29
w: |||||
w: Best of earth’s|di- a-|dems would|be *|On- ly as|
w: |||||
 [DF]3 [Fd]2 [Ge] | [Fd]3 [Ec]3 | B3- (E [DB]2) z |] %32
w: |||
w: dross on Thy|king- ly|head. * *|
w: |||
V:2
 x6 | x6 | x6 | x6 | x6 | x6 | x6 | x6 | x6 | x6 | x6 | x6 | x6 | x3 F2 x | x6 | x6 || x6 | x6 | %18
 x6 | x6 | x6 | x6 | x6 | x6 | x6 | x6 | x3 (DE^F) | x6 | x6 | x6 | x6 | D2 x5 |] %32
V:3
 [B,,F,]2 [B,,F,] [B,,F,]2 [B,,F,] | [B,,B,]3 [B,,B,]2 [B,,F,] | [C,F,]3 [C,F,]3 | %3
 [C,F,]3- [C,F,]2 z | [F,A,]2 [F,A,] [F,A,]2 [F,A,] | [F,C]3 [F,A,]2 [F,C] | [B,,B,]3 [B,,G,]3 | %7
 [B,,F,]3- [B,,F,]2 z | [B,,F,]2 [B,,F,] [B,,F,]2 [B,,F,] | [B,,B,]3 [B,,F,]2 [B,,B,] | %10
 [F,B,]3 [E,=B,]3 | [C,C]3- [C,C]2 z | [E,B,]2 [E,C] [E,B,]2 [E,B,] | [B,,B,]3 (A,B,)[F,C] | %14
 [F,B,]3 [F,A,]3 | [B,,B,]3- [B,,B,]2 z || (B,,[F,B,D][F,B,D]) (B,,[F,B,D])[F,B,D] | %17
 (B,,[F,B,D][F,B,D]) (B,,[F,B,D][F,B,D]) | (F,,[F,A,][F,A,]) (F,,[F,A,][F,A,]) | %19
 (B,,[D,F,B,][D,F,B,]B,,[D,F,B,][D,F,B,]) | (E,[G,B,E][G,B,E]) (E,[G,B,E])[G,B,E] | %21
 (B,,[D,F,B,][D,F,B,]) (B,,[D,F,B,][D,F,B,]) | (C,[=E,G,B,][E,G,B,]) (C,[E,G,B,][E,G,B,]) | %23
 (F,,[F,A,][F,A,][F,,F,][G,,G,][A,,A,]) | B,, ([F,B,D][F,B,D]) (B,,[F,B,D])[F,B,D] | %25
 (B,,[F,B,D][F,B,D]) (B,,[F,B,D][F,B,D]) | (D,,[D,^F,C][D,F,C]) (D,,[D,F,C][D,F,C]) | %27
 (G,,[G,B,D][G,B,D]G,,[G,B,D][G,B,D]) | (E,[G,B,E][G,B,E]) (E,[G,B,E])[G,B,E] | %29
 (B,,[D,F,B,][D,F,B,]) (B,,[D,F,B,])[D,F,B,] | (F,,[F,A,][F,A,]) (F,,[F,A,][F,A,]) | %31
 (z F,G, [B,,F,]2) z x |] %32
V:4
 x6 | x6 | x6 | x6 | x6 | x6 | x6 | x6 | x6 | x6 | x6 | x6 | x6 | x3 F,2 x | x6 | x6 || x6 | x6 | %18
 x6 | x6 | x6 | x6 | x6 | x6 | x6 | x6 | x6 | x6 | x6 | x6 | x6 | B,,3- x4 |] %32

